X: '1'
T:Valse Suzanne
C:Laurence Beaudry
N:©Laurence Beaudry, Août 2009
Z:robin.beech@mcgill.ca
N:Avec tout mon amitié, Laurence
R:waltz
M:3/4
L:1/4
K:D
A,>DF | AFB | AFB | AFD | A,>DF | AFB | ABA | G3 |
E>FG | BGG | cGG | BGG | E>FG | BGB | dcB  F3 |
A,>DF | AFB | AFd | AFD | A,>DF | A2d | dc=c | B3 |
G>Bd | gdB | F>Ad | fdA | E>Ac | eca | gfe | d3 ||
f>gf | afd | AFd | AFA | f>gf | afb | faf | g3 |
E>FG | BGG | cGG | BGF | E>FG | edc | BAB | F3 |
f>gf | afb | faf | afd | Adf | a2b | =c'>d'c' | b3 |
G,B,D | GBd | cBe | B2A | E>FG | Bcd | edc | d3 |]
